src/assets/icons/bitcoin.svg

<svg width="14" height="14" viewBox="0 0 14 14" fill="none" xmlns="http://www.w3.org/2000/svg">
<g id="bitcoin">
<g clip-path="url(#clip0_156_4479)">
<path id="Vector" d="M8.3296 8.4636C8.09423 9.41821 6.49039 8.90284 5.9689 8.76897L6.38889 7.08288C6.91038 7.20975 8.5781 7.4705 8.3296 8.4636ZM6.962 4.77291L6.5805 6.30677C7.01975 6.41527 8.35585 6.85362 8.57197 5.98827C8.79421 5.08441 7.40124 4.88053 6.962 4.77291ZM13.7904 8.69284C12.855 12.4413 9.05584 14.7258 5.30741 13.7905C1.55898 12.8551 -0.725602 9.05597 0.209756 5.30754C1.14511 1.55299 4.94429 -0.725488 8.69272 0.209869C12.4411 1.14523 14.7257 4.94441 13.7904 8.69284ZM4.6958 8.17749C4.6573 8.27286 4.56193 8.41286 4.34581 8.36211C4.30731 8.36211 3.78581 8.22211 3.78581 8.22211L3.40432 9.10059L4.40355 9.34908C4.5943 9.39983 4.77279 9.44445 4.95128 9.4952L4.6398 10.7683L5.40366 10.959L5.72216 9.69907C5.93215 9.75594 6.12902 9.80757 6.33289 9.85832L6.0144 11.1122L6.78438 11.3029L7.10287 10.0298C8.4136 10.2783 9.40058 10.1759 9.81358 8.99295C10.1443 8.03834 9.79432 7.4915 9.10746 7.12838C9.61057 7.01375 9.98595 6.68299 10.0874 6.00226C10.2274 5.07302 9.52133 4.5708 8.54747 4.23918L8.86596 2.97309L8.09598 2.78232L7.79062 4.01079C7.58675 3.96004 7.37675 3.91543 7.17375 3.86468L7.47912 2.63007L6.71526 2.43933L6.39676 3.69931C6.23139 3.66081 6.06602 3.62318 5.90678 3.58468L4.85067 3.31693L4.6468 4.13768C4.6468 4.13768 5.20679 4.26456 5.20679 4.27768C5.51216 4.35381 5.5699 4.55768 5.5629 4.72305L4.6958 8.17749Z" fill="black"/>
</g>
</g>
<defs>
<clipPath id="clip0_156_4479">
<rect width="14" height="14" fill="white"/>
</clipPath>
</defs>
</svg>

<svg xmlns="http://www.w3.org/2000/svg" fill="none" viewBox="0 0 14 14"><g clip-path="url(#a)"><path fill="#000" d="M8.33 8.464c-.236.954-1.84.439-2.361.305l.42-1.686c.521.127 2.19.388 1.94 1.38M6.962 4.773l-.381 1.534c.439.108 1.775.547 1.991-.319.222-.904-1.17-1.107-1.61-1.215m6.828 3.92a7 7 0 0 1-8.483 5.098A7 7 0 0 1 .21 5.307 6.995 6.995 0 0 1 8.693.21a7 7 0 0 1 5.097 8.483m-9.094-.516c-.039.096-.134.236-.35.185-.039 0-.56-.14-.56-.14l-.382.879 1 .248c.19.05.369.095.547.146l-.311 1.273.764.191.318-1.26c.21.057.407.109.61.16l-.318 1.253.77.19.319-1.272c1.31.248 2.298.146 2.71-1.037.331-.955-.019-1.501-.706-1.865.504-.114.879-.445.98-1.126.14-.929-.566-1.431-1.54-1.763l.319-1.266-.77-.19-.305 1.228c-.204-.051-.414-.096-.617-.146l.305-1.235-.764-.19-.318 1.26q-.25-.059-.49-.115L4.85 3.317l-.204.82s.56.128.56.14c.305.077.363.28.356.446z"/></g><defs><clipPath id="a"><path fill="#fff" d="M0 0h14v14H0z"/></clipPath></defs></svg>
